packages/icons/raw/imported/MailBox.svg

<svg width="32" height="32" viewBox="0 0 32 32" fill="none" xmlns="http://www.w3.org/2000/svg">
<path d="M7.23077 11.8846H6.73077H7.23077ZM7.23077 21.5H7.73077H7.23077ZM20.7692 25.5V26V25.5ZM11.2308 25.5V25V25.5ZM24.7692 11.8846H24.2692H24.7692ZM24.7692 21.5H25.2692H24.7692ZM23.7692 10.8846L23.7692 11.3846H23.7692V10.8846ZM8.23077 10.8846L8.23077 10.3846H8.23077V10.8846ZM6.5 8.5H6H6.5ZM6.5 8.88462H7H6.5ZM23.5 10.8846V10.3846V10.8846ZM8.5 10.8846V11.3846V10.8846ZM25.5 8.50001H25H25.5ZM25.5 8.88462H26H25.5ZM23.5 6.50001V7.00001V6.50001ZM8.5 6.5L8.5 6H8.5V6.5ZM18.1923 15.7693C18.4685 15.7693 18.6923 15.5454 18.6923 15.2693C18.6923 14.9931 18.4685 14.7693 18.1923 14.7693V15.7693ZM13.8077 14.7693C13.5316 14.7693 13.3077 14.9931 13.3077 15.2693C13.3077 15.5454 13.5316 15.7693 13.8077 15.7693V14.7693ZM6.73077 11.8846L6.73077 21.5H7.73077L7.73077 11.8846H6.73077ZM20.7692 25H11.2308V26H20.7692V25ZM24.2692 11.8846V21.5H25.2692V11.8846H24.2692ZM23.7692 10.3846L8.23077 10.3846L8.23077 11.3846L23.7692 11.3846L23.7692 10.3846ZM25.2692 11.8846C25.2692 11.0562 24.5977 10.3846 23.7692 10.3846V11.3846C24.0454 11.3846 24.2692 11.6085 24.2692 11.8846H25.2692ZM7.73077 11.8846C7.73077 11.6084 7.95463 11.3846 8.23077 11.3846V10.3846C7.40235 10.3846 6.73077 11.0561 6.73077 11.8846H7.73077ZM6.73077 21.5C6.73077 23.9852 8.74549 26 11.2308 26V25C9.29778 25 7.73077 23.433 7.73077 21.5H6.73077ZM20.7692 26C23.2545 26 25.2692 23.9852 25.2692 21.5H24.2692C24.2692 23.433 22.7022 25 20.7692 25V26ZM6 8.5L6 8.88462H7V8.5H6ZM23.5 10.3846H8.5V11.3846H23.5V10.3846ZM25 8.50001V8.88462H26V8.50001H25ZM23.5 6.00001L8.5 6L8.5 7L23.5 7.00001V6.00001ZM26 8.50001C26 7.1193 24.8807 6.00001 23.5 6.00001V7.00001C24.3284 7.00001 25 7.67158 25 8.50001H26ZM7 8.5C7 7.67157 7.67157 7 8.5 7V6C7.11929 6 6 7.11929 6 8.5H7ZM6 8.88462C6 10.2653 7.11929 11.3846 8.5 11.3846V10.3846C7.67157 10.3846 7 9.71304 7 8.88462H6ZM23.5 11.3846C24.8807 11.3846 26 10.2653 26 8.88462H25C25 9.71304 24.3284 10.3846 23.5 10.3846V11.3846ZM18.1923 14.7693H13.8077V15.7693H18.1923V14.7693Z" fill="black"/>
</svg>

<svg width="32" height="32" fill="none" xmlns="http://www.w3.org/2000/svg"><path d="M7.23 11.885h-.5.5Zm0 9.615h.5-.5Zm13.54 4v.5-.5Zm-9.54 0V25v.5Zm13.54-13.615h-.5.5Zm0 9.615h.5-.5Zm-1-10.615v.5-.5Zm-15.54 0v-.5.5ZM6.5 8.5H6h.5Zm0 .385H7h-.5Zm17 2v-.5.5Zm-15 0v.5-.5Zm17-2.385H25h.5Zm0 .385h.5-.5Zm-2-2.385V7v-.5Zm-15 0V6v.5Zm9.692 9.27a.5.5 0 1 0 0-1v1Zm-4.384-1a.5.5 0 1 0 0 1v-1ZM6.73 11.884V21.5h1v-9.615h-1ZM20.769 25h-9.538v1h9.538v-1Zm3.5-13.115V21.5h1v-9.615h-1Zm-.5-1.5H8.231v1h15.538v-1Zm1.5 1.5a1.5 1.5 0 0 0-1.5-1.5v1a.5.5 0 0 1 .5.5h1Zm-17.538 0a.5.5 0 0 1 .5-.5v-1a1.5 1.5 0 0 0-1.5 1.5h1Zm-1 9.615a4.5 4.5 0 0 0 4.5 4.5v-1a3.5 3.5 0 0 1-3.5-3.5h-1ZM20.769 26a4.5 4.5 0 0 0 4.5-4.5h-1a3.5 3.5 0 0 1-3.5 3.5v1ZM6 8.5v.385h1V8.5H6Zm17.5 1.885h-15v1h15v-1ZM25 8.5v.385h1V8.5h-1ZM23.5 6h-15v1h15V6ZM26 8.5A2.5 2.5 0 0 0 23.5 6v1A1.5 1.5 0 0 1 25 8.5h1Zm-19 0A1.5 1.5 0 0 1 8.5 7V6A2.5 2.5 0 0 0 6 8.5h1Zm-1 .385a2.5 2.5 0 0 0 2.5 2.5v-1a1.5 1.5 0 0 1-1.5-1.5H6Zm17.5 2.5a2.5 2.5 0 0 0 2.5-2.5h-1a1.5 1.5 0 0 1-1.5 1.5v1Zm-5.308 3.384h-4.384v1h4.384v-1Z" fill="#000"/></svg>
